assets/icons/24px/stroke/clipboard-full-24px.svg

<svg width="24" height="24" viewBox="0 0 24 24" fill="none" xmlns="http://www.w3.org/2000/svg">
<path fill-rule="evenodd" clip-rule="evenodd" d="M6.96802 2.5L7 2.5V4.5C6.52038 4.5 6.21074 4.50054 5.97376 4.51671C5.74577 4.53227 5.65894 4.55888 5.61732 4.57612C5.37229 4.67762 5.17762 4.87229 5.07613 5.11732C5.05889 5.15893 5.03227 5.24576 5.01672 5.47376C5.00055 5.71074 5 6.02038 5 6.5V17C5 17.9711 5.00213 18.5988 5.06431 19.0613C5.12263 19.495 5.21677 19.631 5.2929 19.7071C5.36902 19.7832 5.50497 19.8774 5.93871 19.9357C6.40122 19.9979 7.02893 20 8 20H16C16.9711 20 17.5988 19.9979 18.0613 19.9357C18.495 19.8774 18.631 19.7832 18.7071 19.7071C18.7832 19.631 18.8774 19.495 18.9357 19.0613C18.9979 18.5988 19 17.9711 19 17V6.5C19 6.02038 18.9995 5.71074 18.9833 5.47376C18.9677 5.24576 18.9411 5.15893 18.9239 5.11732C18.8224 4.87229 18.6277 4.67762 18.3827 4.57612C18.3411 4.55888 18.2542 4.53227 18.0262 4.51671C17.7893 4.50054 17.4796 4.5 17 4.5V2.5L17.032 2.5C17.4706 2.49999 17.8491 2.49998 18.1624 2.52135C18.4922 2.54386 18.8221 2.59336 19.1481 2.72836C19.8831 3.03284 20.4672 3.61687 20.7716 4.35195C20.9066 4.67788 20.9562 5.00779 20.9787 5.33762C21 5.65088 21 6.02936 21 6.46801L21 17.0658C21.0001 17.9523 21.0001 18.7161 20.9179 19.3278C20.8297 19.9833 20.631 20.6117 20.1213 21.1213C19.6117 21.631 18.9833 21.8297 18.3278 21.9179C17.7161 22.0001 16.9523 22.0001 16.0658 22H7.9342C7.0477 22.0001 6.28388 22.0001 5.67221 21.9179C5.0167 21.8297 4.38835 21.631 3.87868 21.1213C3.36902 20.6117 3.17028 19.9833 3.08215 19.3278C2.99991 18.7161 2.99995 17.9523 3 17.0658L3 6.46802C2.99999 6.02937 2.99998 5.65088 3.02135 5.33762C3.04386 5.00779 3.09336 4.67788 3.22837 4.35195C3.53285 3.61687 4.11687 3.03284 4.85195 2.72836C5.17788 2.59336 5.50779 2.54386 5.83762 2.52135C6.15088 2.49998 6.52937 2.49999 6.96802 2.5Z" fill="white"/>
<path fill-rule="evenodd" clip-rule="evenodd" d="M8.75 3C8.33579 3 8 3.33579 8 3.75C8 4.16421 8.33579 4.5 8.75 4.5H15.25C15.6642 4.5 16 4.16421 16 3.75C16 3.33579 15.6642 3 15.25 3H8.75ZM6 3.75C6 2.23122 7.23122 1 8.75 1H15.25C16.7688 1 18 2.23122 18 3.75C18 5.26878 16.7688 6.5 15.25 6.5H8.75C7.23122 6.5 6 5.26878 6 3.75Z" fill="white"/>
<path fill-rule="evenodd" clip-rule="evenodd" d="M7 9C7 8.44772 7.44772 8 8 8H16C16.5523 8 17 8.44772 17 9C17 9.55228 16.5523 10 16 10H8C7.44772 10 7 9.55228 7 9Z" fill="white"/>
<path fill-rule="evenodd" clip-rule="evenodd" d="M7 13C7 12.4477 7.44772 12 8 12H16C16.5523 12 17 12.4477 17 13C17 13.5523 16.5523 14 16 14H8C7.44772 14 7 13.5523 7 13Z" fill="white"/>
<path fill-rule="evenodd" clip-rule="evenodd" d="M7 17C7 16.4477 7.44772 16 8 16H12C12.5523 16 13 16.4477 13 17C13 17.5523 12.5523 18 12 18H8C7.44772 18 7 17.5523 7 17Z" fill="white"/>
</svg>

<svg width="24" height="24" fill="none" xmlns="http://www.w3.org/2000/svg"><path fill-rule="evenodd" clip-rule="evenodd" d="M6.968 2.5H7v2c-.48 0-.79 0-1.026.017-.228.015-.315.042-.357.06a1 1 0 0 0-.54.54c-.018.042-.045.129-.06.357C5 5.71 5 6.02 5 6.5V17c0 .971.002 1.599.064 2.061.059.434.153.57.229.646.076.076.212.17.646.229C6.4 19.998 7.029 20 8 20h8c.971 0 1.599-.002 2.061-.064.434-.059.57-.153.646-.229.076-.076.17-.212.229-.646.062-.462.064-1.09.064-2.061V6.5c0-.48 0-.79-.017-1.026-.015-.228-.042-.315-.06-.357a1 1 0 0 0-.54-.54c-.042-.018-.129-.045-.357-.06A16.908 16.908 0 0 0 17 4.5v-2h.032c.439 0 .817 0 1.13.021.33.023.66.072.986.207a3 3 0 0 1 1.624 1.624c.135.326.184.656.207.986.021.313.021.691.021 1.13v10.598c0 .886 0 1.65-.082 2.262-.088.655-.287 1.284-.797 1.793-.51.51-1.138.709-1.793.797-.612.082-1.376.082-2.262.082H7.934c-.886 0-1.65 0-2.262-.082-.655-.088-1.284-.287-1.793-.797-.51-.51-.709-1.138-.797-1.793C3 18.716 3 17.952 3 17.066V6.468c0-.439 0-.817.021-1.13.023-.33.072-.66.207-.986a3 3 0 0 1 1.624-1.624 3.07 3.07 0 0 1 .986-.207c.313-.021.691-.021 1.13-.021z" fill="#fff"/><path fill-rule="evenodd" clip-rule="evenodd" d="M8.75 3a.75.75 0 0 0 0 1.5h6.5a.75.75 0 0 0 0-1.5h-6.5zM6 3.75A2.75 2.75 0 0 1 8.75 1h6.5a2.75 2.75 0 1 1 0 5.5h-6.5A2.75 2.75 0 0 1 6 3.75zM7 9a1 1 0 0 1 1-1h8a1 1 0 1 1 0 2H8a1 1 0 0 1-1-1zm0 4a1 1 0 0 1 1-1h8a1 1 0 1 1 0 2H8a1 1 0 0 1-1-1zm0 4a1 1 0 0 1 1-1h4a1 1 0 1 1 0 2H8a1 1 0 0 1-1-1z" fill="#fff"/></svg>
